X: 1
T: Hole In The Roof, The
M: 4/4
L: 1/8
R: reel
K: Gdor
DGG^F G=FDE | F3E FDCE | DGG^F GdcA | GBAG FDDF |
G3 G2 FDE | F2FE FDCA, | B,GFD CA,FA | dcAG FDD^F :|
|: GdcA BAGA | F3E FGAF | Gdd^c defd |
[1 cage fcAF |GdcA BAGA | F2FE FGAF | GBAc dBcA | Bfef gdcA :|
[2 cage fedc | BggB agfd | caa^g a=gef | gdcd efed |BGdB cAGF||
